src/Assests/SVG/cross.svg

<svg width="24" height="24" viewBox="0 0 24 24" fill="none" xmlns="http://www.w3.org/2000/svg"><path fill-rule="evenodd" clip-rule="evenodd" d="m12 10.93 5.719-5.72a.7495.7495 0 0 1 .531-.219c.404 0 .75.324.75.749 0 .193-.073.385-.219.532l-5.72 5.719 5.719 5.719c.147.147.22.339.22.531 0 .427-.349.75-.75.75a.7495.7495 0 0 1-.531-.219L12 13.053l-5.719 5.719a.7495.7495 0 0 1-.531.219c-.401 0-.75-.323-.75-.75 0-.192.073-.384.22-.531l5.719-5.719-5.72-5.719A.7518.7518 0 0 1 5 5.74c0-.425.346-.749.75-.749.192 0 .385.073.531.219L12 10.93Z" fill="#000"/></svg>

<svg width="24" height="24" viewBox="0 0 24 24" fill="none" xmlns="http://www.w3.org/2000/svg">
<path fill-rule="evenodd" clip-rule="evenodd" d="M12 10.93L17.719 5.21C17.865 5.064 18.058 4.991 18.25 4.991C18.654 4.991 19 5.315 19 5.74C19 5.933 18.927 6.125 18.781 6.272L13.061 11.991L18.78 17.71C18.927 17.857 19 18.049 19 18.241C19 18.668 18.651 18.991 18.25 18.991C18.058 18.991 17.865 18.918 17.719 18.772L12 13.053L6.281 18.772C6.135 18.918 5.942 18.991 5.75 18.991C5.349 18.991 5 18.668 5 18.241C5 18.049 5.073 17.857 5.22 17.71L10.939 11.991L5.219 6.272C5.073 6.125 5 5.933 5 5.74C5 5.315 5.346 4.991 5.75 4.991C5.942 4.991 6.135 5.064 6.281 5.21L12 10.93Z" fill="black"/>
</svg>
